X: 5783
T: Caisleán An Óir
R: hornpipe
M: 4/4
K: Gdorian
|:GF|DG{A}G^F G2 (3A=Bc|d^cde {fa}f2ga|gfdc AdcA|DG{A}GE FEDC|
DG{A}G^F G2 (3A=Bc|d^cde {fa}f{e}fga|{ga}gfdc Ad{cd}cA|G2{A}GF G2:|
|:(3ABc|dgga _b2 ag|{af}^fdde =f2ga|gfdc AdcA|DG~G2 DF~F2|
DG{A}G^F G2 (3A=Bc|d^cde f^fga|{ga}gfdc Ad{cd}cA|G2{A}GF G2:|

